third_party/noto/noto_2/emoji_u1f51f.svg

<svg enable-background="new 0 0 128 128" version="1.1" viewBox="0 0 128 128" xmlns="http://www.w3.org/2000/svg"><path d="m116 4h-104c-4.42 0-8 3.58-8 8v104c0 4.42 3.58 8 8 8h104c4.42 0 8-3.58 8-8v-104c0-4.42-3.58-8-8-8z" fill="#427687"/><path d="m121.7 6.3c-1.54-1.46-3.58-2.28-5.7-2.3h-104c-4.42 0-8 3.58-8 8v104c0.02 2.12 0.84 4.16 2.3 5.7l16.8-16.8h76c3.26-0.01 5.89-2.64 5.9-5.9v-76l16.7-16.7z" fill="#8CAFBF"/><path d="m99.5 68.7c0 9.6-1.8 16.8-5.4 21.7s-9.1 7.3-16.4 7.3-12.7-2.4-16.3-7.1-5.5-11.8-5.6-21.1v-11.6c0-9.6 1.8-16.8 5.4-21.6s9.1-7.2 16.5-7.2c7.3 0 12.8 2.3 16.4 7s5.4 11.7 5.5 21l-0.1 11.6zm-11.2-12.5c0-6.3-0.9-10.9-2.6-13.8s-4.4-4.4-8.2-4.4c-3.6 0-6.3 1.4-8 4.2s-2.6 7.1-2.7 13v15.1c0 6.2 0.9 10.9 2.6 13.9 1.6 3.01 4.8 4.81 8.2 4.6 3.21 0.2 6.27-1.43 7.9-4.2 1.7-2.8 2.6-7.3 2.7-13.3l0.1-15.1z" fill="#FAFAFA"/><path d="m46.4 97.9h-8.9c-0.66-0.01-1.19-0.54-1.2-1.2v-52.2c0.01-0.68-0.54-1.25-1.23-1.25-0.13 0-0.25 0.02-0.37 0.05l-9.9 3.3c-0.62 0.22-1.31-0.1-1.53-0.73-0.05-0.15-0.08-0.31-0.07-0.47v-7c0-0.52 0.32-1 0.8-1.2l22.1-8.2c0.1 0 0.3-0.1 0.4-0.1 0.64-0.02 1.18 0.48 1.2 1.12v0.08 66.3c0.07 0.76-0.49 1.43-1.25 1.5h-0.05z" fill="#FAFAFA"/><path d="m39.7 12.9c0-2.3-1.6-3-10.8-2.7-7.7 0.3-11.5 1.2-13.8 4s-2.9 8.5-3 15.3c0 4.8 0 9.3 2.5 9.3 3.4 0 3.4-7.9 6.2-12.3 5.4-8.7 18.9-10.6 18.9-13.6z" enable-background="new" fill="#B4E1ED" opacity=".5"/></svg>

<?xml version="1.0" encoding="utf-8"?>
<!-- Generator: Adobe Illustrator 25.2.3, SVG Export Plug-In . SVG Version: 6.00 Build 0)  -->
<svg version="1.1" id="Layer_2" xmlns="http://www.w3.org/2000/svg" xmlns:xlink="http://www.w3.org/1999/xlink" x="0px" y="0px"
	 viewBox="0 0 128 128" style="enable-background:new 0 0 128 128;" xml:space="preserve">
<g>
	<path style="fill:#427687;" d="M116,4H12c-4.42,0-8,3.58-8,8v104c0,4.42,3.58,8,8,8h104c4.42,0,8-3.58,8-8V12
		C124,7.58,120.42,4,116,4z"/>
	<path style="fill:#8CAFBF;" d="M121.7,6.3c-1.54-1.46-3.58-2.28-5.7-2.3H12c-4.42,0-8,3.58-8,8v104c0.02,2.12,0.84,4.16,2.3,5.7
		l16.8-16.8h76c3.26-0.01,5.89-2.64,5.9-5.9V23L121.7,6.3z"/>
	<path style="fill:#FAFAFA;" d="M99.5,68.7c0,9.6-1.8,16.8-5.4,21.7s-9.1,7.3-16.4,7.3S65,95.3,61.4,90.6s-5.5-11.8-5.6-21.1V57.9
		c0-9.6,1.8-16.8,5.4-21.6c3.6-4.8,9.1-7.2,16.5-7.2c7.3,0,12.8,2.3,16.4,7s5.4,11.7,5.5,21C99.6,57.1,99.5,68.7,99.5,68.7z
		 M88.3,56.2c0-6.3-0.9-10.9-2.6-13.8S81.3,38,77.5,38c-3.6,0-6.3,1.4-8,4.2s-2.6,7.1-2.7,13v15.1c0,6.2,0.9,10.9,2.6,13.9
		c1.6,3.01,4.8,4.81,8.2,4.6c3.21,0.2,6.27-1.43,7.9-4.2c1.7-2.8,2.6-7.3,2.7-13.3L88.3,56.2z"/>
	<path style="fill:#FAFAFA;" d="M46.4,97.9h-8.9c-0.66-0.01-1.19-0.54-1.2-1.2V44.5c0.01-0.68-0.54-1.25-1.23-1.25
		c-0.13,0-0.25,0.02-0.37,0.05l-9.9,3.3c-0.62,0.22-1.31-0.1-1.53-0.73c-0.05-0.15-0.08-0.31-0.07-0.47v-7c0-0.52,0.32-1,0.8-1.2
		L46.1,29c0.1,0,0.3-0.1,0.4-0.1c0.64-0.02,1.18,0.48,1.2,1.12c0,0.03,0,0.05,0,0.08v66.3c0.07,0.76-0.49,1.43-1.25,1.5
		C46.43,97.9,46.42,97.9,46.4,97.9z"/>
	<path style="opacity:0.5;fill:#B4E1ED;enable-background:new    ;" d="M39.7,12.9c0-2.3-1.6-3-10.8-2.7c-7.7,0.3-11.5,1.2-13.8,4
		s-2.9,8.5-3,15.3c0,4.8,0,9.3,2.5,9.3c3.4,0,3.4-7.9,6.2-12.3C26.2,17.8,39.7,15.9,39.7,12.9z"/>
</g>
</svg>
